static/assets/images/networks/syscoin-mono.svg

<svg width="268" height="256" viewBox="0 0 268 256" fill="none" xmlns="http://www.w3.org/2000/svg">
<path d="M114.016 144.645C125.258 150.47 144.677 164.326 137.365 179.599C130.526 193.848 106.94 194.005 94.1253 191.801C66.9233 187.078 38.6207 174.875 19.8309 154.249C11.668 145.55 5.7532 134.984 2.60157 123.472C-0.550056 111.96 -0.842875 99.8503 1.74863 88.1989C14.642 34.902 73.8417 6.32479 123.371 0.971489C167.303 -3.71724 211.354 8.68442 246.409 35.6105C246.43 35.6209 246.448 35.6352 246.463 35.6526C246.478 35.6701 246.49 35.6904 246.497 35.7123C246.505 35.7342 246.507 35.7574 246.506 35.7805C246.504 35.8035 246.498 35.826 246.488 35.8467C246.477 35.8674 246.463 35.8858 246.446 35.901C246.428 35.9161 246.408 35.9277 246.386 35.935C246.342 35.9497 246.294 35.9463 246.252 35.9254C245.466 35.6105 244.365 35.5318 243.5 35.2956C209.144 24.1954 171.643 18.4485 136.186 23.4869C112.836 26.872 86.8137 36.319 73.2128 56.8663C51.5927 89.5372 75.021 122.051 104.503 139.685L114.016 144.645Z" fill="black"/>
<path d="M173.406 64.799C198.097 68.729 220.587 78.161 239.695 94.1953C243.469 97.3393 246.772 101.269 249.996 105.042C263.364 120.605 269.287 138.395 267.767 158.411C265.172 191.188 239.302 218.619 211.937 233.867C150.602 267.665 77.4728 262.399 21.564 220.505C21.5263 220.468 21.5023 220.42 21.4956 220.367C21.489 220.315 21.5001 220.261 21.5274 220.216C21.5546 220.171 21.5962 220.136 21.6457 220.117C21.6951 220.098 21.7494 220.097 21.7999 220.112C51.7841 230.166 83.2839 234.953 114.903 234.26C137.313 233.317 161.768 227.658 180.169 214.375C199.198 200.62 208.634 178.219 199.67 155.582C193.379 139.469 178.911 126.107 164.049 117.54C151.939 110.466 132.359 102.37 129.529 86.6498C127.17 72.9734 140.144 66.2138 151.625 64.5632C158.754 63.5152 166.015 63.5938 173.406 64.799Z" fill="black"/>
</svg>

<svg xmlns="http://www.w3.org/2000/svg" fill="none" viewBox="0 0 268 256"><path fill="#000" d="M114.016 144.645c11.242 5.825 30.661 19.681 23.349 34.954-6.839 14.249-30.425 14.406-43.24 12.202-27.202-4.723-55.504-16.926-74.294-37.552A73.24 73.24 0 0 1 2.6 123.472a73.3 73.3 0 0 1-.852-35.273C14.642 34.902 73.842 6.325 123.37.97a172 172 0 0 1 123.038 34.64.17.17 0 0 1 .088.101.175.175 0 0 1-.245.213c-.786-.314-1.887-.393-2.752-.63-34.356-11.1-71.857-16.847-107.314-11.808-23.35 3.385-49.372 12.832-62.973 33.38-21.62 32.67 1.808 65.184 31.29 82.818z"/><path fill="#000" d="M173.406 64.799c24.691 3.93 47.181 13.362 66.289 29.396 3.774 3.144 7.077 7.074 10.301 10.847q20.052 23.345 17.771 53.369c-2.595 32.777-28.465 60.208-55.83 75.456-61.335 33.798-134.464 28.532-190.373-13.362a.23.23 0 0 1-.037-.289.24.24 0 0 1 .273-.104 274 274 0 0 0 93.103 14.148c22.41-.943 46.865-6.602 65.266-19.885 19.029-13.755 28.465-36.156 19.501-58.793-6.291-16.113-20.759-29.475-35.621-38.042-12.11-7.074-31.69-15.17-34.52-30.89-2.359-13.677 10.615-20.436 22.096-22.087q10.694-1.573 21.781.236"/></svg>
